src/assets/filled/FavoriteChart.svg

<svg width="24" height="24" viewBox="0 0 24 24"  xmlns="http://www.w3.org/2000/svg">
<path d="M19.1199 14.9404L19.4399 15.5904C19.5999 15.9104 20.0099 16.2104 20.3499 16.2704L20.7799 16.3404C22.0899 16.5604 22.3899 17.5204 21.4599 18.4604L21.0599 18.8604C20.7899 19.1304 20.6499 19.6504 20.7299 20.0304L20.7799 20.2704C21.1399 21.8504 20.2999 22.4604 18.9299 21.6304L18.6399 21.4504C18.2899 21.2404 17.7099 21.2404 17.3599 21.4504L17.0699 21.6304C15.6899 22.4604 14.8599 21.8504 15.2199 20.2704L15.2699 20.0304C15.3499 19.6604 15.2099 19.1304 14.9399 18.8604L14.5399 18.4604C13.6099 17.5104 13.9099 16.5604 15.2199 16.3404L15.6499 16.2704C15.9999 16.2104 16.3999 15.9104 16.5599 15.5904L16.8799 14.9404C17.4999 13.6904 18.4999 13.6904 19.1199 14.9404Z" />
<path d="M16.19 2H7.81C4.17 2 2 4.17 2 7.81V16.19C2 19.83 4.17 22 7.81 22H13.09C13.44 22 13.69 21.64 13.65 21.29C13.61 20.91 13.63 20.46 13.75 19.94C13.77 19.87 13.75 19.79 13.69 19.73L13.47 19.51C12.62 18.65 12.31 17.61 12.61 16.66C12.92 15.72 13.78 15.06 14.97 14.86L15.27 14.81L15.54 14.27C16.09 13.15 16.99 12.5 18 12.5C19.01 12.5 19.91 13.15 20.46 14.27L20.61 14.58C20.68 14.73 20.82 14.83 20.98 14.86C21.07 14.88 21.16 14.9 21.25 14.92C21.6 15.01 22 14.73 22 14.36V7.81C22 4.17 19.83 2 16.19 2ZM16.26 8.96L13.95 11.94C13.66 12.31 13.25 12.55 12.78 12.6C12.32 12.66 11.85 12.53 11.49 12.24L9.66 10.82C9.59 10.76 9.51 10.76 9.47 10.77C9.43 10.77 9.36 10.79 9.3 10.87L6.92 13.96C6.77 14.15 6.55 14.25 6.32 14.25C6.16 14.25 6 14.2 5.86 14.09C5.53 13.84 5.47 13.37 5.72 13.04L8.1 9.95C8.39 9.58 8.8 9.34 9.27 9.28C9.74 9.22 10.2 9.35 10.57 9.64L12.4 11.08C12.47 11.14 12.54 11.13 12.59 11.13C12.63 11.13 12.7 11.11 12.76 11.03L15.07 8.05C15.32 7.72 15.79 7.66 16.12 7.92C16.46 8.17 16.51 8.64 16.26 8.96Z" />
</svg>

<?xml version="1.0" encoding="UTF-8"?>
<svg width="24" height="24" viewBox="0 0 24 24" xmlns="http://www.w3.org/2000/svg">
 <path d="m19.12 14.94 0.32 0.65c0.16 0.32 0.57 0.62 0.91 0.68l0.43 0.07c1.31 0.22 1.61 1.18 0.68 2.12l-0.4 0.4c-0.27 0.27-0.41 0.79-0.33 1.17l0.05 0.24c0.36 1.58-0.48 2.19-1.85 1.36l-0.29-0.18c-0.35-0.21-0.93-0.21-1.28 0l-0.29 0.18c-1.38 0.83-2.21 0.22-1.85-1.36l0.05-0.24c0.08-0.37-0.06-0.9-0.33-1.17l-0.4-0.4c-0.93-0.95-0.63-1.9 0.68-2.12l0.43-0.07c0.35-0.06 0.75-0.36 0.91-0.68l0.32-0.65c0.62-1.25 1.62-1.25 2.24 0z"/>
 <path d="m16.19 2h-8.38c-3.64 0-5.81 2.17-5.81 5.81v8.38c0 3.64 2.17 5.81 5.81 5.81h5.28c0.35 0 0.6-0.36 0.56-0.71-0.04-0.38-0.02-0.83 0.1-1.35 0.02-0.07 0-0.15-0.06-0.21l-0.22-0.22c-0.85-0.86-1.16-1.9-0.86-2.85 0.31-0.94 1.17-1.6 2.36-1.8l0.3-0.05 0.27-0.54c0.55-1.12 1.45-1.77 2.46-1.77s1.91 0.65 2.46 1.77l0.15 0.31c0.07 0.15 0.21 0.25 0.37 0.28l0.27 0.06c0.35 0.09 0.75-0.19 0.75-0.56v-6.55c0-3.64-2.17-5.81-5.81-5.81zm0.07 6.96-2.31 2.98c-0.29 0.37-0.7 0.61-1.17 0.66-0.46 0.06-0.93-0.07-1.29-0.36l-1.83-1.42c-0.07-0.06-0.15-0.06-0.19-0.05-0.04 0-0.11 0.02-0.17 0.1l-2.38 3.09c-0.15 0.19-0.37 0.29-0.6 0.29-0.16 0-0.32-0.05-0.46-0.16-0.33-0.25-0.39-0.72-0.14-1.05l2.38-3.09c0.29-0.37 0.7-0.61 1.17-0.67s0.93 0.07 1.3 0.36l1.83 1.44c0.07 0.06 0.14 0.05 0.19 0.05 0.04 0 0.11-0.02 0.17-0.1l2.31-2.98c0.25-0.33 0.72-0.39 1.05-0.13 0.34 0.25 0.39 0.72 0.14 1.04z"/>
</svg>
